images_elementary_svg/cmd/sc_groupbox.svg

<svg viewBox="0 0 16 16" xmlns="http://www.w3.org/2000/svg" xmlns:xlink="http://www.w3.org/1999/xlink"><linearGradient id="a" gradientTransform="matrix(.61504669 0 0 .61504674 27.556065 -3.084108)" gradientUnits="userSpaceOnUse" x1="-31" x2="-36" y1="12" y2="6"><stop offset="0" stop-color="#1f1f1f"/><stop offset="1" stop-color="#5c5c5c"/></linearGradient>


     /&gt;
 <path d="m1 1h14l-.50379 13.499996h-12.996215z" fill="#e9e9e9"/><path d="m1.5 1.0214844c-.2761309.0000276-.4999724.2238691-.5.5v12.9785156c.0000276.276131.2238691.499972.5.5h12.996094c.276131-.000028.499972-.223869.5-.5v-12.9785156c-.000028-.2761309-.223869-.4999724-.5-.5h-2.496094v1h1.996094v11.9785156h-11.996094v-11.9785156h1v-1z" fill="#8c8c8c"/><path d="m2.5019531 2.0214844a.50005.50005 0 0 0 -.5019531.5v10.9785156a.50005.50005 0 0 0  .4980469.5l11.0214841.023438a.50005.50005 0 0 0  .5-.5v-10.9785161a.50005.50005 0 0 0 -.498047-.5l-1.521484-.0039063v1l1.019531.0019532v9.9785152l-10.019531-.019531v-9.9785155l1 .0019531v-1z" fill="#fdfdfb"/><path d="m7.9963362 3.6442812 1.6954483-3.34642593h1.8566545l-2.6960404 4.96405033v3.162984h-1.7121249v-3.1073955l-2.6960408-5.01963883h1.8677726z" style="stroke:#000;stroke-width:.614646;stroke-linecap:round;stroke-linejoin:round;fill:url(#a);opacity:.66" transform="scale(.96919394 1.0317852)"/></svg>

<svg xmlns="http://www.w3.org/2000/svg" xmlns:xlink="http://www.w3.org/1999/xlink" viewBox="0 0 16 16"><defs><linearGradient id="b"><stop offset="0" stop-color="#e9e9e9"/><stop offset="1" stop-color="#f6f6f6"/></linearGradient><linearGradient id="a"><stop offset="0" stop-color="#fff"/><stop offset=".063" stop-color="#fff" stop-opacity=".235"/><stop offset=".951" stop-color="#fff" stop-opacity=".157"/><stop offset="1" stop-color="#fff" stop-opacity=".392"/></linearGradient><linearGradient xlink:href="#a" id="d" x1="9.39" y1="2.87" x2="9.409" y2="13.921" gradientUnits="userSpaceOnUse"/><linearGradient xlink:href="#b" id="c" x1="8" y1="14" x2="8" y2="6" gradientUnits="userSpaceOnUse"/></defs><linearGradient id="e" gradientTransform="matrix(.61505 0 0 .61505 27.556 -3.084)" gradientUnits="userSpaceOnUse" x1="-31" x2="-36" y1="12" y2="6"><stop offset="0" stop-color="#1f1f1f"/><stop offset="1" stop-color="#5c5c5c"/></linearGradient>/&gt;<path d="M1 1h14l-.504 13.5H1.5z" fill="url(#c)"/><path d="M1.5 1.02c-.276.002-.5.225-.5.5V14.5c0 .276.224.5.5.5h12.996c.276 0 .5-.224.5-.5V1.52c0-.275-.224-.498-.5-.5H12v1h1.996V14H2V2.02h1v-1z" fill="#acacac" fill-opacity=".838"/><path d="M2.502 2.02a.5.5 0 0 0-.502.5V13.5a.5.5 0 0 0 .498.5l11.022.023a.5.5 0 0 0 .5-.5V2.545a.5.5 0 0 0-.5-.5L12 2.04v1l1.02.003v9.978L3 13.003v-9.98l1 .003v-1z" fill="url(#d)"/><path d="M7.996 3.644L9.692.298h1.856L8.852 5.262v3.163H7.14V5.317L4.444.297h1.868z" transform="scale(.9692 1.0318)" stroke="#000" stroke-width=".615" stroke-linecap="round" stroke-linejoin="round" fill="url(#e)" opacity=".66"/></svg>
